assets/icons/custom/notification.svg

<svg width="19" height="21" viewBox="0 0 19 21" fill="none" xmlns="http://www.w3.org/2000/svg">
<path d="M2.26536 17.2309H2.26522C2.00613 17.2307 1.75203 17.1601 1.52863 17.0267C1.30527 16.8932 1.12076 16.7019 0.993109 16.4726H0.993109C0.865481 16.2433 0.799017 15.9838 0.800011 15.7203C0.801005 15.4568 0.869371 15.198 0.998637 14.9697M2.26536 17.2309L12.8908 17.0309M2.26536 17.2309H5.94059M2.26536 17.2309L6.10743 17.0309M0.998637 14.9697C0.998688 14.9696 0.998739 14.9696 0.99879 14.9695L1.17279 15.0681L0.998582 14.9698C0.9986 14.9698 0.998619 14.9698 0.998637 14.9697ZM0.998637 14.9697C1.48835 14.1012 2.24625 11.5791 2.24625 8.26984C2.24625 6.29062 3.00916 4.3913 4.36898 2.99001C5.729 1.58851 7.57488 0.8 9.5009 0.8C11.4269 0.8 13.2728 1.58851 14.6328 2.99001C15.9926 4.3913 16.7556 6.29062 16.7556 8.26984C16.7556 11.5783 17.5126 14.1015 18.0023 14.9698L17.8281 15.0681L18.0021 14.9695C18.1317 15.1981 18.1989 15.4569 18.2 15.7197C18.2011 15.9831 18.1348 16.2424 18.0074 16.4717C17.88 16.7009 17.6958 16.8923 17.4727 17.0259C17.2496 17.1595 16.9958 17.2304 16.7369 17.2309L16.7364 17.2309H13.0576M13.0576 17.2309C13.0691 17.1751 13.0793 17.1189 13.0883 17.0623L12.8908 17.0309M13.0576 17.2309H12.8908V17.0309M13.0576 17.2309C12.8919 18.0387 12.4705 18.77 11.8559 19.308C11.1987 19.8834 10.3634 20.2 9.4991 20.2C8.63476 20.2 7.79947 19.8834 7.14224 19.308C6.52765 18.77 6.10627 18.0387 5.94059 17.2309M12.8908 17.0309C12.759 17.8599 12.3455 18.6137 11.7242 19.1575C11.1029 19.7014 10.3143 20 9.4991 20C8.68391 20 7.89526 19.7014 7.27398 19.1575C6.6527 18.6137 6.23924 17.8599 6.10743 17.0309M5.94059 17.2309H6.10743V17.0309M5.94059 17.2309C5.92914 17.1751 5.9189 17.1189 5.90992 17.0623L6.10743 17.0309M8.16933 18.2174C8.54917 18.527 9.0183 18.6948 9.50084 18.695L8.16933 18.2174ZM8.16933 18.2174C7.85422 17.9606 7.61574 17.6186 7.47944 17.2309M8.16933 18.2174L7.47944 17.2309M7.47944 17.2309H11.5224C11.3861 17.6186 11.1476 17.9606 10.8325 18.2174C10.4526 18.527 9.9835 18.6948 9.50097 18.695L7.47944 17.2309ZM15.2702 8.26984C15.2702 11.5991 16.0023 14.4465 16.7065 15.7125H2.29628C3.00066 14.4506 3.73158 11.5995 3.73158 8.26984C3.73158 6.68952 4.34083 5.1751 5.42348 4.05942C6.50594 2.94395 7.97276 2.31844 9.5009 2.31844C11.0291 2.31844 12.4959 2.94395 13.5783 4.05942C14.661 5.1751 15.2702 6.68952 15.2702 8.26984Z" fill="white" stroke="white" stroke-width="0.4"/>
</svg>

<svg width="19" height="21" fill="none" xmlns="http://www.w3.org/2000/svg">
    <path d="M2.265 17.23c-.259 0-.513-.07-.736-.203a1.487 1.487 0 0 1-.536-.554A1.536 1.536 0 0 1 1 14.97m1.266 2.26 10.626-.2m-10.626.2h3.676m-3.676 0 3.842-.2M1 14.97l.174.098-.174-.098Zm0 0c.49-.869 1.247-3.39 1.247-6.7 0-1.98.763-3.879 2.123-5.28A7.15 7.15 0 0 1 9.501.8a7.15 7.15 0 0 1 5.132 2.19 7.584 7.584 0 0 1 2.123 5.28c0 3.308.757 5.832 1.246 6.7l-.174.098.174-.098a1.534 1.534 0 0 1-.53 2.056 1.437 1.437 0 0 1-.735.205h-3.68m0 0c.012-.056.022-.112.031-.169l-.197-.031m.167.2h-.167v-.2m.167.2a3.764 3.764 0 0 1-1.202 2.077 3.576 3.576 0 0 1-2.357.892c-.864 0-1.7-.317-2.357-.892a3.763 3.763 0 0 1-1.201-2.077m6.95-.2a3.569 3.569 0 0 1-1.167 2.127A3.377 3.377 0 0 1 9.5 20a3.377 3.377 0 0 1-2.225-.843 3.569 3.569 0 0 1-1.167-2.126m-.166.2h.166v-.2m-.166.2a3.804 3.804 0 0 1-.031-.169l.197-.031m2.062 1.186c.38.31.85.478 1.332.478l-1.332-.478Zm0 0a2.222 2.222 0 0 1-.69-.986m.69.986-.69-.986m0 0h4.043c-.136.388-.374.73-.69.986-.38.31-.849.478-1.331.478l-2.022-1.464ZM15.27 8.27c0 3.33.732 6.177 1.436 7.443H2.296C3.001 14.45 3.732 11.6 3.732 8.27c0-1.58.609-3.095 1.691-4.21a5.681 5.681 0 0 1 4.078-1.742 5.68 5.68 0 0 1 4.077 1.741 6.048 6.048 0 0 1 1.692 4.21Z" fill="#fff" stroke="#fff" stroke-width=".4"/>
</svg>
